X: 350
T: Don't be teasing
C: anon.
O: Ireland
B: Francis O'Neill: "The Dance Music of Ireland" (1907) no. 350
R: Double jig
Z: Transcribed by Frank Nordberg - http://www.musicaviva.com
F: http://www.musicaviva.com/abc/tunes/ireland/oneill-1001/oneill-1001-035
0.abc
M: 6/8
L: 1/8
K: D
B|AFD DFD|AFA dcB|AFD DF(D|E)FG (Bc)d|AFD DFD|AFA (d2A)|(B/c/d)(B c)e(d|d
3) d2:|
||g|afd dc(d|B)cd (AF)D|afd dc(d|B)cd e2f|afd dcd|(Be)(d c)BA|Bgf ec(A|d3
) d2:|
W:
W:
W: From Musica Viva - http://www.musicaviva.com
W: the Internet center for free sheet music downloads.


